4/images/logo-cat-energy.svg

<svg width="101" height="21" viewBox="0 0 101 21" fill="none" xmlns="http://www.w3.org/2000/svg">
<g clip-path="url(#clip0_94552_2064)">
<path d="M1.26449 18.9204C0.36955 17.5501 -0.0747041 15.9072 1.02073e-05 14.2443V7.31353C-0.108365 5.63267 0.308071 3.96064 1.18546 2.55387C2.05478 1.46834 3.39829 0.967319 5.37403 0.967319C7.34978 0.967319 8.61425 1.46834 9.40455 2.38687C10.2626 3.55025 10.6846 5.00699 10.59 6.4785V8.14856H6.71754V6.22799C6.74881 5.65997 6.66808 5.09127 6.48045 4.55794C6.38016 4.34266 6.2212 4.164 6.02403 4.04496C5.82686 3.92591 5.60049 3.87191 5.37403 3.88992C4.82082 3.88992 4.42568 4.05692 4.26762 4.47444C4.08883 5.06774 4.00862 5.68927 4.03053 6.3115V15.2463C3.98879 15.85 4.0978 16.4547 4.34665 16.9998C4.5047 17.4174 4.89985 17.5844 5.45306 17.5844C6.00627 17.5844 6.32239 17.4174 6.48045 16.9998C6.66013 16.4355 6.74049 15.8412 6.71754 15.2463V13.2422H10.59V14.9123C10.6704 16.4078 10.2508 17.8856 9.40455 19.0874C8.61425 20.0895 7.27075 20.5905 5.37403 20.5905C3.47732 20.507 2.05478 20.0059 1.26449 18.9204Z" fill="#111111"/>
<path d="M15.2527 1.21885H19.7574L23.0767 20.2575H19.4413L18.8091 16.2493H16.2011L15.5689 20.2575H11.8545L15.2527 1.21885ZM18.493 13.7443L17.5446 6.31251L16.5962 13.7443H18.493Z" fill="#111111"/>
<path d="M25.8427 4.39195H23.1557V1.21885H32.5603V4.30845H29.8732V20.2575H25.8427V4.39195Z" fill="#111111"/>
<path d="M39.7519 1.21885H46.7066V3.22291H42.2019V9.48561H45.8372V11.4062H42.2019V18.4204H46.7066V20.341H39.6729V1.21885H39.7519Z" fill="#111111"/>
<path d="M48.7613 1.21885H50.5L55.6369 13.8278V1.21885H57.6917V20.2575H56.1111L50.8951 7.23104V20.2575H48.7613V1.21885Z" fill="#111111"/>
<path d="M60.0626 1.21885H67.0172V3.22291H62.5125V9.48561H66.1479V11.4062H62.5125V18.4204H67.0172V20.341H60.0626V1.21885Z" fill="#111111"/>
<path d="M69.072 1.21903H72.7074C74.1375 1.11466 75.5587 1.52687 76.7379 2.38807C77.6072 3.1396 78.0024 4.47564 78.0024 6.2292C78.0024 8.65078 77.2911 10.1538 75.7895 10.6548L78.3185 20.1742H75.8686L73.4977 11.2394H71.5219V20.1742H68.993V1.21903H69.072ZM72.5493 9.4023C73.364 9.47324 74.1761 9.23653 74.8412 8.73428C75.3153 8.31677 75.5524 7.48174 75.5524 6.2292C75.5743 5.60698 75.4941 4.98544 75.3153 4.39214C75.1375 3.9664 74.832 3.6143 74.446 3.39011C73.9017 3.12803 73.3042 3.01324 72.7074 3.05609H71.6009V9.3188H72.5493V9.4023Z" fill="#111111"/>
<path d="M81.1635 18.8381C80.342 17.3781 79.9564 15.6902 80.0571 13.995V7.64875C80.0376 6.43866 80.1705 5.23121 80.4523 4.05813C80.7167 3.18154 81.2437 2.41954 81.9538 1.88706C82.8362 1.33517 83.8542 1.07354 84.8779 1.13554C86.5375 1.13554 87.723 1.55305 88.4343 2.47158C89.2525 3.68445 89.6438 5.16128 89.5407 6.64672V7.31474H87.1698V6.73022C87.1734 6.03088 87.1205 5.33249 87.0117 4.64265C86.9451 4.20672 86.7178 3.81642 86.3795 3.55712C85.9353 3.24905 85.4081 3.10246 84.8779 3.1396C84.3113 3.10124 83.7504 3.27902 83.2973 3.64062C83.1114 3.80613 82.9595 4.01 82.8508 4.23973C82.7421 4.46947 82.6789 4.72023 82.6651 4.97666C82.5609 5.72317 82.5081 6.47666 82.507 7.23124V14.329C82.4488 15.4103 82.6105 16.4923 82.9812 17.5021C83.2973 18.1701 83.9296 18.4206 84.8779 18.4206C85.2524 18.4699 85.6323 18.4011 85.9698 18.2228C86.3073 18.0445 86.5873 17.7647 86.7746 17.4186C87.1922 16.3626 87.3812 15.2215 87.3278 14.0785V12.7424H85.036V10.8219H89.6197V20.2577H88.0391L87.802 18.0866C87.5948 18.8142 87.1634 19.4478 86.5763 19.8865C85.9892 20.3253 85.2801 20.5441 84.5618 20.5082C83.9088 20.5487 83.2565 20.4174 82.6634 20.1259C82.0702 19.8344 81.5549 19.3919 81.1635 18.8381Z" fill="#111111"/>
<path d="M94.6776 13.5787L90.8052 1.30376H93.176L95.9421 10.4891L98.6291 1.30376H101L97.1275 13.5787V20.2589H94.7566V13.5787H94.6776Z" fill="#111111"/>
</g>
<defs>
<clipPath id="clip0_94552_2064">
<rect width="101" height="19.5396" fill="white" transform="translate(0 0.967319)"/>
</clipPath>
</defs>
</svg>

<svg viewBox="0 0 101 21" fill="none" xmlns="http://www.w3.org/2000/svg"><g clip-path="url(#a)" fill="#111"><path d="M1.26 18.92a7.92 7.92 0 0 1-1.26-4.68v-6.93c-.1-1.68.3-3.35 1.19-4.76.86-1.08 2.2-1.58 4.18-1.58 1.98 0 3.24.5 4.03 1.42a6.23 6.23 0 0 1 1.19 4.09v1.67h-3.87v-1.92a4.32 4.32 0 0 0-.24-1.67c-.1-.22-.26-.4-.46-.52-.2-.11-.42-.17-.65-.15-.55 0-.94.17-1.1.58-.18.6-.26 1.22-.24 1.84v8.94c-.04.6.07 1.2.32 1.75.15.42.55.58 1.1.58.56 0 .87-.16 1.03-.58.18-.56.26-1.16.24-1.75v-2h3.87v1.66a6.64 6.64 0 0 1-1.19 4.18c-.79 1-2.13 1.5-4.03 1.5-1.9-.08-3.32-.58-4.1-1.67Zm13.99-17.7h4.5l3.33 19.04h-3.64l-.63-4.01h-2.6l-.64 4h-3.72l3.4-19.03Zm3.24 12.52-.95-7.43-.94 7.43h1.9Zm7.35-9.34h-2.68v-3.18h9.4v3.09h-2.69v15.95h-4.03v-15.87Zm13.91-3.18h6.96v2h-4.5v6.27h3.63v1.92h-3.64v7.01h4.5v1.92h-7.03v-19.12h.08Zm9.01 0h1.74l5.14 12.6v-12.6h2.05v19.04h-1.58l-5.21-13.03v13.03h-2.14v-19.04Zm11.3 0h6.96v2h-4.5v6.27h3.63v1.92h-3.64v7.01h4.5v1.92h-6.95v-19.12Zm9.01 0h3.64c1.43-.1 2.85.3 4.03 1.17.87.75 1.26 2.09 1.26 3.84 0 2.42-.7 3.92-2.21 4.42l2.53 9.52h-2.45l-2.37-8.93h-1.98v8.93h-2.53v-18.95h.08Zm3.48 8.18c.81.07 1.63-.16 2.3-.67.47-.41.7-1.25.7-2.5a5.68 5.68 0 0 0-.23-1.84 2.08 2.08 0 0 0-.87-1 3.44 3.44 0 0 0-1.74-.33h-1.1v6.26h.94v.08Zm8.61 9.44a8.82 8.82 0 0 1-1.1-4.85v-6.34a14.1 14.1 0 0 1 .4-3.6c.26-.87.78-1.63 1.5-2.16.88-.55 1.9-.82 2.92-.75 1.66 0 2.84.41 3.55 1.33a6.66 6.66 0 0 1 1.11 4.18v.66h-2.37v-.58c0-.7-.05-1.4-.16-2.09a1.7 1.7 0 0 0-.63-1.08 2.3 2.3 0 0 0-1.5-.42 2.28 2.28 0 0 0-1.58.5 1.87 1.87 0 0 0-.63 1.34c-.1.74-.16 1.5-.16 2.25v7.1c-.06 1.08.1 2.16.47 3.17.32.67.95.92 1.9.92.37.05.75-.02 1.09-.2.34-.18.62-.46.8-.8a8.1 8.1 0 0 0 .56-3.34v-1.34h-2.3v-1.92h4.59v9.44h-1.58l-.24-2.17a3.4 3.4 0 0 1-1.22 1.8 3.1 3.1 0 0 1-2.02.62c-.65.04-1.3-.1-1.9-.38a4 4 0 0 1-1.5-1.3Zm13.52-5.26-3.87-12.28h2.37l2.76 9.19 2.69-9.19h2.37l-3.87 12.28v6.68h-2.37v-6.68h-.08Z"/></g><defs><clipPath id="a"><path fill="#fff" transform="translate(0 .967)" d="M0 0h101v19.54h-101z"/></clipPath></defs></svg>
